X:1
T:Title
%%score { 1 | 2 }
L:1/8
M:3/4
K:G
V:1 treble nm="Grand Piano"
V:2 bass 
V:1
 z2 z2[Q:1/4=100] G>G | G2 D2 G>A | B4 d>d | e2 d2 B>G |[M:2/4] [FA]4 |[M:1/4] B>B | %6
[M:3/4] B2 d2 d>d | [CEc]4 [EAc]>[EAc] | [DGB]2 [B,G]2 [DGB]>[CFA] |[M:2/4] [B,DG]4 | %10
[M:1/4] (3AAA |[M:3/4] A2 [DGB]2 [DAc]>[D^GB] | [DAc]4 (3BBB | B2 [DAc]2 [DBd]>[D_B^c] | %14
[M:2/4] [DBd]4 |[M:1/4] d>d |[M:3/4] e2 d2 B>d | [CEc]4 [EAc]>[EAc] | [DGB]2 [B,G]2 [DGB]>[CFA] | %19
[M:2/4] [B,DG]4 |] %20
V:2
 z2 z2 [G,B,D]>[G,B,D] | [G,B,D]2 [G,B,]2 [G,B,D]>[K:treble][G,CD] | [G,DG]4 [G,B,G]>[G,B,G] | %3
 [G,CG]2 [G,B,G]2 [G,DG]>[K:bass][G,B,] |[M:2/4] [D,D]4 |[M:1/4][K:treble] [G,DG]>[G,DG] | %6
[M:3/4] [G,DG]2 [G,B,G]2 [G,B,=F]>[G,B,F] | C,4 C,>C, | D,2 D,2 D,>D, |[M:2/4] G,,4 | %10
[M:1/4][K:treble] (3FFF |[M:3/4] F2[K:bass] D,2 D,>D, | D,4[K:treble] (3GGG | G2 G,2 G,>G, | %14
[M:2/4] G,4 |[M:1/4] [G,B,G]>[G,B,G] |[M:3/4] [G,CG]2 [G,B,G]2 [G,D=F]>[G,B,F] | C,4 C,>C, | %18
 D,2 D,2 D,>D, |[M:2/4] G,,4 |] %20

